wolterwythe/images/spotify.svg

<svg width="28" height="28" viewBox="0 0 28 28" fill="none" xmlns="http://www.w3.org/2000/svg">
<g clip-path="url(#clip0_779_3074)">
<path d="M13.9942 0C6.27783 0 0 6.279 0 13.9953C0 21.7187 6.27783 28 13.9942 28C21.7175 28 28 21.7175 28 13.9953C28 6.279 21.7175 0 13.9942 0ZM6.89267 19.138C8.49499 18.6472 10.1612 18.3963 11.837 18.3937C14.6533 18.3937 17.4335 19.1077 19.8777 20.4587C20.0235 20.538 20.1553 20.7993 20.216 21.126C20.2743 21.4527 20.251 21.7875 20.1553 21.9613C20.1102 22.044 20.0492 22.1169 19.9757 22.1759C19.9023 22.2348 19.8178 22.2785 19.7273 22.3046C19.6368 22.3306 19.542 22.3384 19.4485 22.3276C19.3549 22.3167 19.2645 22.2874 19.1823 22.2413C17.3871 21.2565 15.4123 20.6422 13.3751 20.435C11.338 20.2278 9.27997 20.4318 7.32317 21.035C7.23334 21.064 7.13862 21.0749 7.04454 21.067C6.95047 21.0591 6.8589 21.0325 6.77519 20.9889C6.69147 20.9452 6.61728 20.8854 6.55693 20.8128C6.49658 20.7402 6.45128 20.6563 6.42367 20.566C6.29883 20.1577 6.55667 19.2477 6.89267 19.138ZM6.2825 13.9813C8.09264 13.4896 9.96008 13.2404 11.8358 13.2405C15.2122 13.2405 18.564 14.0572 21.5308 15.6042C21.7397 15.7092 21.8925 15.8888 21.9625 16.1082C21.9979 16.2189 22.0107 16.3357 22.0003 16.4515C21.9899 16.5673 21.9564 16.6798 21.9018 16.7825C21.637 17.3005 21.3267 17.6493 21.1318 17.6493C20.9897 17.6487 20.8497 17.6143 20.7235 17.549C17.9809 16.1171 14.9309 15.3747 11.837 15.386C10.1161 15.3825 8.40263 15.6121 6.74333 16.0685C6.63264 16.0988 6.51707 16.1069 6.40322 16.0925C6.28938 16.0781 6.17948 16.0414 6.07981 15.9845C5.98014 15.9277 5.89265 15.8517 5.82234 15.761C5.75202 15.6703 5.70026 15.5667 5.67 15.456C5.53933 14.9637 5.83917 14.1027 6.2825 13.9813ZM6.125 10.6143C5.99368 10.648 5.85699 10.6554 5.72282 10.636C5.58864 10.6166 5.45964 10.5708 5.34325 10.5013C5.22687 10.4317 5.1254 10.3399 5.04472 10.2309C4.96404 10.122 4.90573 9.9981 4.87317 9.8665C4.72967 9.2855 5.0925 8.61117 5.61983 8.47817C7.65392 7.97716 9.74095 7.72294 11.8358 7.721C15.8608 7.721 19.7178 8.62633 23.2972 10.4125C23.5431 10.5348 23.7304 10.7497 23.8179 11.0101C23.9054 11.2704 23.886 11.5548 23.7638 11.8008C23.597 12.1368 23.2353 12.4985 22.8363 12.4985C22.6799 12.4979 22.5254 12.4633 22.3837 12.397C19.1107 10.7551 15.4976 9.90545 11.8358 9.91667C9.92833 9.91667 8.00683 10.1512 6.125 10.6143Z" fill="url(#paint0_linear_779_3074)"/>
</g>
<defs>
<linearGradient id="paint0_linear_779_3074" x1="1.04308e-08" y1="14" x2="28.2826" y2="14.07" gradientUnits="userSpaceOnUse">
<stop stop-color="#4C27C1"/>
<stop offset="1" stop-color="#F761DF"/>
</linearGradient>
<clipPath id="clip0_779_3074">
<rect width="28" height="28" fill="white"/>
</clipPath>
</defs>
</svg>

<svg width="28" height="28" viewBox="0 0 28 28" fill="none" xmlns="http://www.w3.org/2000/svg"><g clip-path="url(#clip0_779_3074)"><path d="M13.994 0C6.278 0 0 6.279 0 13.995 0 21.72 6.278 28 13.994 28 21.718 28 28 21.718 28 13.995 28 6.28 21.718 0 13.994 0zM6.893 19.138a16.972 16.972 0 014.944-.744c2.816 0 5.596.714 8.04 2.065.146.079.278.34.339.667.058.327.035.662-.06.835a.713.713 0 01-.974.28 15.291 15.291 0 00-11.859-1.206.713.713 0 01-.9-.469c-.124-.408.134-1.318.47-1.428zm-.61-5.157a21.18 21.18 0 015.553-.74c3.376 0 6.728.816 9.695 2.363a.85.85 0 01.47.848.871.871 0 01-.1.33c-.264.518-.574.867-.77.867a.897.897 0 01-.407-.1 19.05 19.05 0 00-8.887-2.163 19.06 19.06 0 00-5.094.683.873.873 0 01-1.073-.613c-.13-.492.17-1.353.612-1.475zm-.158-3.367a1.027 1.027 0 01-1.252-.748c-.143-.58.22-1.255.747-1.388a26.092 26.092 0 016.216-.757c4.025 0 7.882.905 11.461 2.691a1.036 1.036 0 01.467 1.389c-.167.336-.529.697-.928.697-.156 0-.31-.035-.452-.101a23.364 23.364 0 00-10.548-2.48c-1.908 0-3.83.234-5.711.697z" fill="url(#paint0_linear_779_3074)"/></g><defs><linearGradient id="paint0_linear_779_3074" x1="0" y1="14" x2="28.283" y2="14.07" gradientUnits="userSpaceOnUse"><stop stop-color="#4C27C1"/><stop offset="1" stop-color="#F761DF"/></linearGradient><clipPath id="clip0_779_3074"><path fill="#fff" d="M0 0h28v28H0z"/></clipPath></defs></svg>
